material/.icons/material/youtube-subscription.svg

<svg xmlns="http://www.w3.org/2000/svg" viewBox="0 0 24 24"><path d="M20 8H4V6h16v2m-2-6H6v2h12V2m4 10v8a2 2 0 01-2 2H4a2 2 0 01-2-2v-8a2 2 0 012-2h16a2 2 0 012 2m-6 4l-6-3.27v6.53L16 16z"/></svg>

<?xml version="1.0" encoding="UTF-8"?><!DOCTYPE svg PUBLIC "-//W3C//DTD SVG 1.1//EN" "http://www.w3.org/Graphics/SVG/1.1/DTD/svg11.dtd"><svg xmlns="http://www.w3.org/2000/svg" xmlns:xlink="http://www.w3.org/1999/xlink" version="1.1" id="mdi-youtube-subscription" width="24" height="24" viewBox="0 0 24 24"><path d="M20,8H4V6H20V8M18,2H6V4H18V2M22,12V20A2,2 0 0,1 20,22H4A2,2 0 0,1 2,20V12A2,2 0 0,1 4,10H20A2,2 0 0,1 22,12M16,16L10,12.73V19.26L16,16Z" /></svg>
